receipt-text-outline.svg

<svg fill="currentColor" viewBox="0 0 24 24"><path d="M19.5 3.5 18 2l-1.5 1.5L15 2l-1.5 1.5L12 2l-1.5 1.5L9 2 7.5 3.5 6 2 4.5 3.5 3 2v20l1.5-1.5L6 22l1.5-1.5L9 22l1.5-1.5L12 22l1.5-1.5L15 22l1.5-1.5L18 22l1.5-1.5L21 22V2zM19 19H5V5h14zM6 15h12v2H6m0-6h12v2H6m0-6h12v2H6z"/></svg>

<svg  viewBox="0 0 24 24" fill="currentColor"><path  d="M19.5 3.5L18 2L16.5 3.5L15 2L13.5 3.5L12 2L10.5 3.5L9 2L7.5 3.5L6 2L4.5 3.5L3 2V22L4.5 20.5L6 22L7.5 20.5L9 22L10.5 20.5L12 22L13.5 20.5L15 22L16.5 20.5L18 22L19.5 20.5L21 22V2L19.5 3.5M19 19H5V5H19V19M6 15H18V17H6M6 11H18V13H6M6 7H18V9H6V7Z"/></svg>
